**harm	**harte	**timestamp	**phrase	**leadinstrument	**kern
*M4/4	*M4/4	*	*	*	*
*G:	*G:	*	*	*	*G:
1r;	N	0	.	r	1r;
=1	=1	=1	=1	=1	=1
*>A_intro	*>A_intro	*>A_intro	*>A_intro	*>A_intro	*>A_intro
1V7	D:7	0.395	newline	r	1D 1f# 1a 1cc
=2	=2	=2	=2	=2	=2
1V7	D:7	2.13	.	r	1D 1f# 1a 1cc
=3	=3	=3	=3	=3	=3
*>B_verse	*>B_verse	*>B_verse	*>B_verse	*>B_verse	*>B_verse
1I	G:maj	3.865	newline	voice	1G 1b 1dd
=4	=4	=4	=4	=4	=4
1I	G:maj	5.543	.	voice	1G 1b 1dd
=5	=5	=5	=5	=5	=5
1I	G:maj	7.222	.	voice	1G 1b 1dd
=6	=6	=6	=6	=6	=6
1I	G:maj	8.9	.	voice	1G 1b 1dd
=7	=7	=7	=7	=7	=7
1I	G:maj	10.579	newline	voice	1G 1b 1dd
=8	=8	=8	=8	=8	=8
1I	G:maj	12.264	.	voice	1G 1b 1dd
=9	=9	=9	=9	=9	=9
1V7	D:7	13.949	.	voice	1D 1f# 1a 1cc
=10	=10	=10	=10	=10	=10
1V7	D:7	15.634	.	voice	1D 1f# 1a 1cc
=11	=11	=11	=11	=11	=11
1I	G:maj	17.319	newline	voice	1G 1b 1dd
=12	=12	=12	=12	=12	=12
1Im7	G:7	19.015	.	voice	1G 1b 1dd 1ff#
=13	=13	=13	=13	=13	=13
1IV	C:maj	20.711	.	voice	1C 1e 1g
=14	=14	=14	=14	=14	=14
1IV	C:maj	22.408	.	voice	1C 1e 1g
=15	=15	=15	=15	=15	=15
1II7	A:7	24.104	newline	voice	1A 1cc# 1ee 1gg
=16	=16	=16	=16	=16	=16
1II7	A:7	25.793	.	voice	1A 1cc# 1ee 1gg
=17	=17	=17	=17	=17	=17
1V7	D:7	27.481	.	voice	1D 1f# 1a 1cc
=18	=18	=18	=18	=18	=18
1V7	D:7	29.17	.	voice	1D 1f# 1a 1cc
=19	=19	=19	=19	=19	=19
*>C_chorus	*>C_chorus	*>C_chorus	*>C_chorus	*>C_chorus	*>C_chorus
1I	G:maj	30.859	newline	voice	1G 1b 1dd
=20	=20	=20	=20	=20	=20
1I	G:maj	32.57	.	voice	1G 1b 1dd
=21	=21	=21	=21	=21	=21
1I	G:maj	34.28	.	voice	1G 1b 1dd
=22	=22	=22	=22	=22	=22
1I	G:maj	35.991	.	voice	1G 1b 1dd
=23	=23	=23	=23	=23	=23
1I	G:maj	37.702	.	voice	1G 1b 1dd
=24	=24	=24	=24	=24	=24
1V7	D:7	39.413	newline	voice	1D 1f# 1a 1cc
=25	=25	=25	=25	=25	=25
1V7	D:7	41.104	.	voice	1D 1f# 1a 1cc
=26	=26	=26	=26	=26	=26
1V7	D:7	42.795	.	voice	1D 1f# 1a 1cc
=27	=27	=27	=27	=27	=27
1V7	D:7	44.486	.	voice	1D 1f# 1a 1cc
=28	=28	=28	=28	=28	=28
1V7	D:7	46.176	newline	voice	1D 1f# 1a 1cc
=29	=29	=29	=29	=29	=29
1V7	D:7	47.864	.	voice	1D 1f# 1a 1cc
=30	=30	=30	=30	=30	=30
1I	G:maj	49.552	.	voice	1G 1b 1dd
=31	=31	=31	=31	=31	=31
1I	G:maj	51.239	.	voice	1G 1b 1dd
=32	=32	=32	=32	=32	=32
1I	G:maj	52.927	newline	voice	1G 1b 1dd
=33	=33	=33	=33	=33	=33
1I	G:maj	54.639	.	voice	1G 1b 1dd
=34	=34	=34	=34	=34	=34
1I	G:maj	56.35	.	voice	1G 1b 1dd
=35	=35	=35	=35	=35	=35
1I	G:maj	58.062	.	voice	1G 1b 1dd
=36	=36	=36	=36	=36	=36
1IV	C:maj	59.774	newline	voice	1C 1e 1g
=37	=37	=37	=37	=37	=37
1IV	C:maj	61.456	.	voice	1C 1e 1g
=38	=38	=38	=38	=38	=38
1V7	D:7	63.138	.	voice	1D 1f# 1a 1cc
=39	=39	=39	=39	=39	=39
1V7	D:7	64.82	.	voice	1D 1f# 1a 1cc
=40	=40	=40	=40	=40	=40
1V7	D:7	66.502	newline	voice	1D 1f# 1a 1cc
=41	=41	=41	=41	=41	=41
1V7	D:7	68.211	.	voice	1D 1f# 1a 1cc
=42	=42	=42	=42	=42	=42
1I	G:maj	69.92	.	voice	1G 1b 1dd
=43	=43	=43	=43	=43	=43
1I	G:maj	71.63	.	voice	1G 1b 1dd
=44	=44	=44	=44	=44	=44
*>C2_solo	*>C2_solo	*>C2_solo	*>C2_solo	*>C2_solo	*>C2_solo
1I	G:maj	73.339	newline	piano	1G 1b 1dd
=45	=45	=45	=45	=45	=45
1I	G:maj	75.045	.	piano	1G 1b 1dd
=46	=46	=46	=46	=46	=46
1I	G:maj	76.75	.	piano	1G 1b 1dd
=47	=47	=47	=47	=47	=47
1I	G:maj	78.456	.	piano	1G 1b 1dd
=48	=48	=48	=48	=48	=48
1V	D:maj	80.161	newline	piano	1D 1f# 1a
=49	=49	=49	=49	=49	=49
1V	D:maj	81.858	.	piano	1D 1f# 1a
=50	=50	=50	=50	=50	=50
1V7	D:7	83.556	.	piano	1D 1f# 1a 1cc
=51	=51	=51	=51	=51	=51
1V7	D:7	85.253	.	piano	1D 1f# 1a 1cc
=52	=52	=52	=52	=52	=52
1V7	D:7	86.95	.	piano	1D 1f# 1a 1cc
=53	=53	=53	=53	=53	=53
1I	G:maj	88.648	newline	piano	1G 1b 1dd
=54	=54	=54	=54	=54	=54
1I	G:maj	90.332	.	piano	1G 1b 1dd
=55	=55	=55	=55	=55	=55
1I	G:maj	92.017	newline	voice	1G 1b 1dd
=56	=56	=56	=56	=56	=56
1I	G:maj	93.735	.	voice	1G 1b 1dd
=57	=57	=57	=57	=57	=57
1I	G:maj	95.452	.	voice	1G 1b 1dd
=58	=58	=58	=58	=58	=58
1I	G:maj	97.17	.	voice	1G 1b 1dd
=59	=59	=59	=59	=59	=59
1IV	C:maj	98.888	newline	voice	1C 1e 1g
=60	=60	=60	=60	=60	=60
1IV	C:maj	100.549	.	voice	1C 1e 1g
=61	=61	=61	=61	=61	=61
1V7	D:7	102.211	newline	voice	1D 1f# 1a 1cc
=62	=62	=62	=62	=62	=62
1V7	D:7	103.933	.	voice	1D 1f# 1a 1cc
=63	=63	=63	=63	=63	=63
1V7	D:7	105.655	.	voice	1D 1f# 1a 1cc
=64	=64	=64	=64	=64	=64
1V7	D:7	107.377	.	voice	1D 1f# 1a 1cc
=65	=65	=65	=65	=65	=65
1I	G:maj	109.099	newline	voice	1G 1b 1dd
=66	=66	=66	=66	=66	=66
1I	G:maj	110.829	.	voice	1G 1b 1dd
=67	=67	=67	=67	=67	=67
*>_fadeout	*>_fadeout	*>_fadeout	*>_fadeout	*>_fadeout	*>_fadeout
1V7	D:7	112.56	newline	voice	1D 1f# 1a 1cc
=68	=68	=68	=68	=68	=68
1V7	D:7	114.261	.	voice	1D 1f# 1a 1cc
=69	=69	=69	=69	=69	=69
1V7	D:7	115.962	.	voice	1D 1f# 1a 1cc
=70	=70	=70	=70	=70	=70
1V7	D:7	117.663	.	voice	1D 1f# 1a 1cc
=71	=71	=71	=71	=71	=71
1I	G:maj	119.364	newline	voice	1G 1b 1dd
=72	=72	=72	=72	=72	=72
1I	G:maj	121.07	.	voice	1G 1b 1dd
=73	=73	=73	=73	=73	=73
1V7	D:7	122.777	newline	voice	1D 1f# 1a 1cc
=74	=74	=74	=74	=74	=74
1V7	D:7	124.515	.	voice	1D 1f# 1a 1cc
=75	=75	=75	=75	=75	=75
1V7	D:7	126.253	.	voice	1D 1f# 1a 1cc
=76	=76	=76	=76	=76	=76
1V7	D:7	127.992	.	voice	1D 1f# 1a 1cc
1r;	N	129.73	.	r	1r;
1r;	N	132.467	.	r	1r;
*-	*-	*-	*-	*-	*-
!!!OTL: Judy
!!!COC: Elvis Presley
!!!BillboardChartDate: 1967/09/09, 1967/09/16
!!!BillboardPeak: 78, 78
!!!BillboardWeeksOnChart: 5, 5
!!!SampleTargetRank: 87, 89
!!!SampleActualRank: 89, 88
!!!SampleID#: 565, 923
!!!RDF**harmony: **recip + pitch class of root + harmonic quality
!!!RDF**harte: Chris Harte's syntax, used by MIREX
!!!RDF**phrase: newline = linebreak in original McGill transcription
!!!RDF**timestamp: McGill audio timestamp in seconds
!!!RDF**leadinstrument: original McGill primary instrumentation annotation
!!!RDT: 2017/01/12/
!!!ENC: Nathaniel Condit-Schultz
!!!EST: Awating manual error checking and editing.
